Kaze-light-colors/24x24/actions/tab-new-symbolic.svg

<?xml version="1.0" encoding="UTF-8" standalone="no"?>
<svg xmlns:inkscape="http://www.inkscape.org/namespaces/inkscape" xmlns:sodipodi="http://sodipodi.sourceforge.net/DTD/sodipodi-0.dtd" xmlns="http://www.w3.org/2000/svg" xmlns:svg="http://www.w3.org/2000/svg" width="24" height="24" viewBox="0 0 24 24" fill="none" version="1.1" id="svg4" sodipodi:docname="tab-new.svg" inkscape:version="1.4 (e7c3feb100, 2024-10-09)">
  <defs id="defs1">
    <style id="current-color-scheme" type="text/css">
      .ColorScheme-Text { color:#e6f0f5; }
      .ColorScheme-Highlight { color:#2179cb; }
      .ColorScheme-Background { color:#e4e4e4; }
    </style>
  </defs>
  <sodipodi:namedview id="namedview4" pagecolor="#ffffff" bordercolor="#000000" borderopacity="0.25" inkscape:showpageshadow="2" inkscape:pageopacity="0.0" inkscape:pagecheckerboard="0" inkscape:deskcolor="#d1d1d1" inkscape:zoom="33.291667" inkscape:cx="11.984981" inkscape:cy="12" inkscape:window-width="1920" inkscape:window-height="1008" inkscape:window-x="0" inkscape:window-y="0" inkscape:window-maximized="1" inkscape:current-layer="g4"/>
  <g clip-path="url(#clip0_3062_227)" id="g4">
    <path id="path3" d="m 18,16 v 6 m -3,-3 h 6" style="stroke:#000000;stroke-opacity:1;stroke-linejoin:round;stroke-linecap:round"/>
    <path id="path4" d="M 16,7 V 6 C 16,4.89543 15.1046,4 14,4 h -2 c -1.1046,0 -2,0.89543 -2,2 v 1 m 2,13 H 6 C 4.89543,20 4,19.1046 4,18 V 6 C 4,4.89543 4.89543,4 6,4 h 2 c 1.10457,0 2,0.89543 2,2 v 1 h 8 c 1.1046,0 2,0.89543 2,2 v 4" style="stroke:#000000;stroke-opacity:1;stroke-linecap:round;stroke-linejoin:round"/>
    <path id="path3" d="m 18,16 v 6 m -3,-3 h 6" style="stroke:currentColor;opacity:0.5;stroke-linejoin:round;stroke-linecap:round" class="ColorScheme-Highlight"/>
    <path id="path4" d="M 16,7 V 6 C 16,4.89543 15.1046,4 14,4 h -2 c -1.1046,0 -2,0.89543 -2,2 v 1 m 2,13 H 6 C 4.89543,20 4,19.1046 4,18 V 6 C 4,4.89543 4.89543,4 6,4 h 2 c 1.10457,0 2,0.89543 2,2 v 1 h 8 c 1.1046,0 2,0.89543 2,2 v 4" style="stroke:currentColor;opacity:0.5;stroke-linecap:round;stroke-linejoin:round" class="ColorScheme-Highlight"/>
  </g>
  <defs id="defs4">
    <clipPath id="clip0_3062_227">
      <rect width="24" height="24" fill="white" id="rect4"/>
    </clipPath>
  </defs>
</svg>

<svg width="24" height="24" viewBox="0 0 24 24" fill="none" xmlns="http://www.w3.org/2000/svg">
<g clip-path="url(#clip0_3062_227)">
<path d="M12 20H6C4.89543 20 4 19.1046 4 18V6C4 4.89543 4.89543 4 6 4H8C9.10457 4 10 4.89543 10 6V7H18C19.1046 7 20 7.89543 20 9V13" stroke="#111111" stroke-width="1.2" stroke-linecap="round"/>
<path d="M15 19H21" stroke="#111111" stroke-width="1.2" stroke-linecap="round"/>
<path d="M18 16L18 22" stroke="#111111" stroke-width="1.2" stroke-linecap="round"/>
<path d="M16 7V6C16 4.89543 15.1046 4 14 4H12C10.8954 4 10 4.89543 10 6V7" stroke="#111111" stroke-width="1.2" stroke-linecap="round"/>
</g>
<defs>
<clipPath id="clip0_3062_227">
<rect width="24" height="24" fill="white"/>
</clipPath>
</defs>
</svg>
